assets/images/telegram.svg

<!-- Generated by IcoMoon.io -->
<svg version="1.1" xmlns="http://www.w3.org/2000/svg" width="32" height="32" viewBox="0 0 32 32">
<title>telegram</title>
<path d="M16 0c-8.838 0-16 7.162-16 16s7.162 16 16 16 16-7.163 16-16-7.163-16-16-16zM23.863 10.969l-2.625 12.369c-0.181 0.881-0.712 1.087-1.45 0.681l-4-2.956-1.919 1.869c-0.225 0.219-0.4 0.4-0.8 0.4-0.519 0-0.431-0.194-0.606-0.688l-1.363-4.475-3.956-1.231c-0.856-0.262-0.862-0.85 0.194-1.269l15.412-5.95c0.7-0.319 1.381 0.169 1.113 1.25z"></path>
</svg>

<svg width="32" height="32" viewBox="0 0 32 32" fill="none" xmlns="http://www.w3.org/2000/svg">
<g clip-path="url(#clip0_57_2)">
<path d="M16 0C7.162 0 0 7.162 0 16C0 24.838 7.162 32 16 32C24.838 32 32 24.837 32 16C32 7.163 24.837 0 16 0ZM23.863 10.969L21.238 23.338C21.057 24.219 20.526 24.425 19.788 24.019L15.788 21.063L13.869 22.932C13.644 23.151 13.469 23.332 13.069 23.332C12.55 23.332 12.638 23.138 12.463 22.644L11.1 18.169L7.144 16.938C6.288 16.676 6.282 16.088 7.338 15.669L22.75 9.719C23.45 9.4 24.131 9.888 23.863 10.969Z" fill="white"/>
</g>
<defs>
<clipPath id="clip0_57_2">
<rect width="32" height="32" fill="white"/>
</clipPath>
</defs>
</svg>
